X:100
T:Original Varsoviana,The. WI.100
T:Varsoviana,The Original. WI.100
M:3/4
L:1/8
Q:3/4=50
S:Wm Irwin, Folio MS, c1850. AGG’s Transcription
R:.Waltz
O:England
A:Lake District
Z:vmp.Chris Partington.2005
K:C
E>F|G2c2A2|^G4E>F|E2d2B2|”^”A4E>F|!
E2e2c2|”^”B4d>f|e>dc2B2|A4:|!
|:G2|{f}e>^de2G2|{f}e>^de2G2|{f}e>^de2f2|”^”d4G2|!
{g}f>ef2G2|{g}f>ef2G2|{g}f>ef2g2|e4:|!
|:e2|(de) (cd) (Bc)|”^”A4^f2|e^fdeBc|B4:|!
|:G2|{f}e>^de2f2|{a}g>^fg2^g2|a>^ga2b2|”^F”c’4e2|!
{f}e>^de2f2|{a}g>fg2^g2|a>gf2d2|c4:|

